X:1
T:Title
L:1/8
M:4/4
K:C
V:1 treble nm="Grand Piano, Staff"
V:1
 G2 c2 B>A G2 | E>D C2 D2 E2 | E>E A2 Bc B2 | EE A2 Bc d2- | d2 e2- e/ z/ d c2 | A2 G4 c2- | %6
w: By~Rev.~B.~W.~J.~Trevaldwyn * * * *||||||
 c2 d6- | d2 c6 | G2 G2 AB c2 | BA G2 DA G2 | G2 B2 cc d2 | GA B2 A>G G2- | G2 G2- G/ z/ G G2 | %13
w: |||||||
 G2 A4 G2- | G2 c2- c/ z/ c c2 | c2 e4 d2- | d2 c2- c/ z/ c B2 | A2 G4 c2- | c2 d6- | d2 c6- | %20
w: |||||||
 c2 z2 z4 |] %21
w: |

